X:1
T:Title
%%score { ( 1 4 ) | ( 2 3 ) }
L:1/8
Q:1/4=100
M:2/4
K:Eb
V:1 treble nm="Grand Piano"
V:4 treble 
V:2 bass 
V:3 bass 
V:1
 C=B, CD | EF ED | ED EF | [EG]4 | [EG]2 cc | [G,EG][EA] GF | ED EF | [EG]4 | G2 AG | A2 FE | %10
w: ????~?????? * * *||||||||||
 D2 GF | [G,CE]4 | G2 z2 | [G,EG][FA] [EG][DF] | [G,CE]2[K:bass] [G,=B,D]2 | [C,G,C]4 | [EG]2 GF | %17
w: |||||||
 E2 E2 | D2 ED | C4 | C2 cB | A2 G2 | F2 BA | G4 | G2 ed | [=EGc]2 [EB]2 | [CA]2 [CG]2 | [CF]4 | %28
w: |||||||||||
 [CG]2 cc | [G,EG][FA] [EG][DF] | E2 D2 | C4 |] %32
w: ||||
V:2
 [C,E,]4 | [C,G,]4 | [C,G,]4 | [C,G,]4 | z2 EE | z A, [G,E][F,D] | [C,E,]4 | [C,G,]4 | [G,=B,D]4 | %9
 [F,A,C]4 | [F,G,=B,]4 | C,4 | z2[K:treble] cc | z A, G,F, | C,2 F,2 | C,,4 | z2 ED | C2 C2 | %18
 [F,G,=B,]4 | [C,E,G,]4 | [F,A,]4 | [F,A,C]2 [F,G,=B,]2 | [A,B,D]2 [A,B,DF]2 | [G,=B,D]4 | %24
 [G,=B,F]4 | [C,G,]2 [C,B,]2 | [F,A,]2 [C,=E,]2 | [F,,F,]4 | z2 E2 | z A, G,[=B,,G,] | %30
 [C,G,C]2 [F,G,=B,]2 | [C,E,G,]4 |] %32
V:3
 x4 | x4 | x4 | x4 | [C,G,]4 | C,4 | x4 | x4 | x4 | x4 | x4 | x4 | C,4[K:treble] | C,4 | x4 | x4 | %16
 [C,G,]4 | [C,G,]4 | x4 | x4 | x4 | x4 | x4 | x4 | x4 | x4 | x4 | x4 | [C,E,]4 | C,4 | x4 | x4 |] %32
V:4
 x4 | x4 | x4 | x4 | x4 | x4 | x4 | x4 | x4 | x4 | x4 | x4 | [G,E]4 | x4 | x2[K:bass] x2 | x4 | %16
 x4 | x4 | x4 | x4 | x4 | x4 | x4 | x4 | x4 | x4 | x4 | x4 | x4 | x4 | x4 | x4 |] %32

